assets/features/isolated-deployment.svg

<?xml version="1.0" encoding="UTF-8"?>
<svg width="16px" height="16px" viewBox="0 0 16 16" version="1.1" xmlns="http://www.w3.org/2000/svg" xmlns:xlink="http://www.w3.org/1999/xlink">
    <!-- Generator: Sketch 49.2 (51160) - http://www.bohemiancoding.com/sketch -->
    <title>Isolated Deployment</title>
    <desc>Created with Sketch.</desc>
    <defs></defs>
    <g id="IsolatedDeployment-16px" stroke="none" stroke-width="1" fill="none" fill-rule="evenodd">
        <path d="M2.59375,2.59375 L2.59375,7.21875 L7.21875,7.21875 L7.21875,2.59375 L2.59375,2.59375 Z M2.28125,2.125 L7.53125,2.125 C7.61754449,2.125 7.6875,2.19495551 7.6875,2.28125 L7.6875,7.53125 C7.6875,7.61754449 7.61754449,7.6875 7.53125,7.6875 L2.28125,7.6875 C2.19495551,7.6875 2.125,7.61754449 2.125,7.53125 L2.125,2.28125 C2.125,2.19495551 2.19495551,2.125 2.28125,2.125 Z M2.28125,8.3125 L7.53125,8.3125 C7.61754449,8.3125 7.6875,8.38245551 7.6875,8.46875 L7.6875,13.71875 C7.6875,13.8050445 7.61754449,13.875 7.53125,13.875 L2.28125,13.875 C2.19495551,13.875 2.125,13.8050445 2.125,13.71875 L2.125,8.46875 C2.125,8.38245551 2.19495551,8.3125 2.28125,8.3125 Z M2.59375,8.78125 L2.59375,13.40625 L7.21875,13.40625 L7.21875,8.78125 L2.59375,8.78125 Z M8.46875,2.125 L13.71875,2.125 C13.8050445,2.125 13.875,2.19495551 13.875,2.28125 L13.875,7.53125 C13.875,7.61754449 13.8050445,7.6875 13.71875,7.6875 L8.46875,7.6875 C8.38245551,7.6875 8.3125,7.61754449 8.3125,7.53125 L8.3125,2.28125 C8.3125,2.19495551 8.38245551,2.125 8.46875,2.125 Z M8.46875,8.3125 L13.71875,8.3125 C13.8050445,8.3125 13.875,8.38245551 13.875,8.46875 L13.875,13.71875 C13.875,13.8050445 13.8050445,13.875 13.71875,13.875 L8.46875,13.875 C8.38245551,13.875 8.3125,13.8050445 8.3125,13.71875 L8.3125,8.46875 C8.3125,8.38245551 8.38245551,8.3125 8.46875,8.3125 Z M8.78125,8.78125 L8.78125,13.40625 L13.40625,13.40625 L13.40625,8.78125 L8.78125,8.78125 Z" id="Combined-Shape" fill="#689BFF" fill-rule="nonzero"></path>
    </g>
</svg>

<?xml version="1.0" encoding="UTF-8" standalone="no"?>
<svg
   xmlns:dc="http://purl.org/dc/elements/1.1/"
   xmlns:cc="http://creativecommons.org/ns#"
   xmlns:rdf="http://www.w3.org/1999/02/22-rdf-syntax-ns#"
   xmlns:svg="http://www.w3.org/2000/svg"
   xmlns="http://www.w3.org/2000/svg"
   xmlns:sodipodi="http://sodipodi.sourceforge.net/DTD/sodipodi-0.dtd"
   xmlns:inkscape="http://www.inkscape.org/namespaces/inkscape"
   width="16px"
   height="16px"
   viewBox="0 0 16 16"
   version="1.1"
   id="svg10"
   sodipodi:docname="isolated-deployment.svg"
   inkscape:version="0.92.3 (2405546, 2018-03-11)">
  <metadata
     id="metadata14">
    <rdf:RDF>
      <cc:Work
         rdf:about="">
        <dc:format>image/svg+xml</dc:format>
        <dc:type
           rdf:resource="http://purl.org/dc/dcmitype/StillImage" />
      </cc:Work>
    </rdf:RDF>
  </metadata>
  <sodipodi:namedview
     pagecolor="#ffffff"
     bordercolor="#666666"
     borderopacity="1"
     objecttolerance="10"
     gridtolerance="10"
     guidetolerance="10"
     inkscape:pageopacity="0"
     inkscape:pageshadow="2"
     inkscape:window-width="2560"
     inkscape:window-height="1346"
     id="namedview12"
     showgrid="false"
     inkscape:zoom="14.75"
     inkscape:cx="8"
     inkscape:cy="8"
     inkscape:window-x="-11"
     inkscape:window-y="-11"
     inkscape:window-maximized="1"
     inkscape:current-layer="svg10" />
  <!-- Generator: Sketch 49.2 (51160) - http://www.bohemiancoding.com/sketch -->
  <title
     id="title2">Isolated Deployment</title>
  <desc
     id="desc4">Created with Sketch.</desc>
  <defs
     id="defs6" />
  <g
     id="IsolatedDeployment-16px"
     transform="matrix(1.3617021,0,0,1.3617021,-2.8936168,-2.8936168)"
     style="fill:none;fill-rule:evenodd;stroke:none;stroke-width:1">
    <path
       d="m 2.59375,2.59375 v 4.625 h 4.625 v -4.625 z M 2.28125,2.125 h 5.25 c 0.086295,0 0.15625,0.069955 0.15625,0.15625 v 5.25 c 0,0.086295 -0.069955,0.15625 -0.15625,0.15625 h -5.25 C 2.1949555,7.6875 2.125,7.6175445 2.125,7.53125 v -5.25 C 2.125,2.1949555 2.1949555,2.125 2.28125,2.125 Z m 0,6.1875 h 5.25 c 0.086295,0 0.15625,0.069956 0.15625,0.15625 v 5.25 c 0,0.08629 -0.069955,0.15625 -0.15625,0.15625 h -5.25 C 2.194955,13.875 2.125,13.80504 2.125,13.71875 v -5.25 C 2.125,8.382456 2.194955,8.3125 2.28125,8.3125 Z m 0.3125,0.46875 v 4.625 h 4.625 v -4.625 z M 8.46875,2.125 h 5.25 c 0.08629,0 0.15625,0.069955 0.15625,0.15625 v 5.25 c 0,0.086295 -0.06996,0.15625 -0.15625,0.15625 h -5.25 C 8.382456,7.6875 8.3125,7.617545 8.3125,7.53125 v -5.25 C 8.3125,2.194955 8.382456,2.125 8.46875,2.125 Z m 0,6.1875 h 5.25 c 0.08629,0 0.15625,0.069956 0.15625,0.15625 v 5.25 c 0,0.08629 -0.06996,0.15625 -0.15625,0.15625 h -5.25 c -0.086294,0 -0.15625,-0.06996 -0.15625,-0.15625 v -5.25 c 0,-0.086294 0.069956,-0.15625 0.15625,-0.15625 z m 0.3125,0.46875 v 4.625 h 4.625 v -4.625 z"
       id="Combined-Shape"
       inkscape:connector-curvature="0"
       style="fill:#689bff;fill-rule:nonzero" />
  </g>
</svg>
